assets/images/icons/src/twitch.svg

<?xml version="1.0" encoding="utf-8"?>
<!-- Generated by IcoMoon.io -->
<!DOCTYPE svg PUBLIC "-//W3C//DTD SVG 1.1//EN" "http://www.w3.org/Graphics/SVG/1.1/DTD/svg11.dtd">
<svg version="1.1" xmlns="http://www.w3.org/2000/svg" xmlns:xlink="http://www.w3.org/1999/xlink" width="14" height="14" viewBox="0 0 14 14">
<path fill="#444444" d="M7 3.391v3.391h-1.133v-3.391h1.133zM10.109 3.391v3.391h-1.133v-3.391h1.133zM10.109 9.328l1.977-1.984v-6.211h-9.328v8.195h2.547v1.695l1.695-1.695h3.109zM13.219 0v7.914l-3.391 3.391h-2.547l-1.695 1.695h-1.695v-1.695h-3.109v-9.047l0.852-2.258h11.586z"></path>
</svg>

<svg xmlns="http://www.w3.org/2000/svg" width="14" height="14" viewBox="0 0 14 14"><path fill="#444" d="M7 3.391v3.391H5.867V3.391H7zm3.109 0v3.391H8.976V3.391h1.133zm0 5.937l1.977-1.984V1.133H2.758v8.195h2.547v1.695L7 9.328h3.109zM13.219 0v7.914l-3.391 3.391H7.281L5.586 13H3.891v-1.695H.782V2.258L1.634 0H13.22z"/></svg>
